X:130
T:Marquess of Huntley’s Strathspey,The. RH.130
R:Strathspey
S:Rev.R.Harrison’s MS,c1815,Cumbria
O:England
A:Temple Sowerby,Cumbria
Z:vmp.Simon Wilson. Review PJH, 2008.
M:C
L:1/8
Q:1/2=60
K:D
F|D3F AA/A/ AB|defe d2de/f/|\
D3F AA/A/ Af|e>f g/f/e/d/ B2Bd|!
D3F AA/A/ AB|defe d2(de/f/)|\
g2gb affd’|e>f g/f/e/d/ B2B:|!
|:b|afd’f e’fdf|afd’f bagf|\
ee’e’b e’/d’/c’/be’2|be’e’b d’c’ba|!
b/a/g/f/ d’f e’fd’f|afd’f bagf|\
g/a/b/c’/ d’/c’/b/a/ b/a/g/f/ g/f/e/d/|\
e>f g/f/e/d/ B2B:|

